X: 34412
T: Richard Dwyer's
R: reel
M: 4/4
K: Dmajor
|:d2 fd cdec|defd A2 BA|GB B2 ABdf|gfed cdec|
d2 fd cdec|defd A2 BA|GB B2 ABdB|cdec d4:|
|:fB B2 dcBc|Aaag agfe|fB B2 dcBc|Aaag agfe|
d2 fd c2 ec|B2 dB A2 BA|GB B2 ABdB|cdec d4:|

